icons/outline/snowflake-off.svg

<!--
category: Weather
tags: [winter, weather, cold, frost]
version: "1.67"
unicode: "f1a8"
-->
<svg
  xmlns="http://www.w3.org/2000/svg"
  width="24"
  height="24"
  viewBox="0 0 24 24"
  fill="none"
  stroke="currentColor"
  stroke-width="2"
  stroke-linecap="round"
  stroke-linejoin="round"
>
  <path d="M10 4l2 1l2 -1m-2 -2v6m1.196 1.186l1.804 1.034m2.928 -3.952l.134 2.232l1.866 1.232m.732 -2.732l-5.629 3.25l-.031 .75m4.928 3.268l-1.015 .67m-4.701 -.712l-2.171 1.262m1.959 4.512l-2 -1l-2 1m2 2v-6.5l-3 -1.72m-2.928 3.952l-.134 -2.232l-1.866 -1.232m-.732 2.732l5.629 -3.25l-.01 -3.458m-4.887 -.56l1.866 -1.232l.134 -2.232m-2.732 .732l5.629 3.25l.802 -.466m-6.771 -6.784l18 18" />
</svg>

<!--
category: Weather
tags: [winter, weather, cold, frost]
version: "1.67"
unicode: "f1a8"
-->
<svg
  xmlns="http://www.w3.org/2000/svg"
  width="24"
  height="24"
  viewBox="0 0 24 24"
  fill="none"
  stroke="currentColor"
  stroke-width="2"
  stroke-linecap="round"
  stroke-linejoin="round"
>
    <path d="M10 4l2 1l2 -1M12 2v6m1.196 1.186l1.804 1.034M17.928 6.268l.134 2.232l1.866 1.232M20.66 7l-5.629 3.25l-.031 .75M19.928 14.268l-1.015 .67M14.212 14.226l-2.171 1.262M14 20l-2 -1l-2 1M12 22v-6.5l-3 -1.72M6.072 17.732l-.134 -2.232l-1.866 -1.232M3.34 17l5.629 -3.25l-.01 -3.458M4.072 9.732l1.866 -1.232l.134 -2.232M3.34 7l5.629 3.25l.802 -.466M3 3l18 18" />
</svg>
